Adwaita++/actions/22/edit-redo.svg

<svg fill="none" height="22" viewBox="0 0 22 22" width="22" xmlns="http://www.w3.org/2000/svg">
  <path clip-rule="evenodd" d="m12.0277 5.78991v-1.28967l1.2897-.00024c.3991 0 .7123.11646.9673.36272l4.7153 4.79607-4.7153 4.79601c-.255.2462-.5682.3627-.9673.3627h-1.2897v-1.2897c0-.3313.1675-.6815.4031-.9269l1.6522-1.6523h-6.56913c-1.08368 0-1.93452.8509-1.93452 1.9345 0 1.0837.85084 1.9346 1.93452 1.9346h.64484v2.5793h-.64484c-2.47773 0-4.51387-2.0361-4.51387-4.5139 0-2.4777 2.03614-4.51383 4.51387-4.51383h6.56933l-1.6524-1.6524c-.2356-.24541-.4031-.59565-.4031-.92696z" fill="#444" fill-rule="evenodd"/>
</svg>

<svg xmlns="http://www.w3.org/2000/svg" fill="none" width="22" height="22" viewBox="0 0 22 22">
 <path fill="#444" fill-rule="evenodd" d="M12.0277 5.78991V4.50024L13.3174 4.5C13.7165 4.5 14.0297 4.61646 14.2847 4.86272L19 9.65879L14.2847 14.4548C14.0297 14.701 13.7165 14.8175 13.3174 14.8175H12.0277V13.5278C12.0277 13.1965 12.1952 12.8463 12.4308 12.6009L14.083 10.9486H7.51387C6.43019 10.9486 5.57935 11.7995 5.57935 12.8831C5.57935 13.9668 6.43019 14.8177 7.51387 14.8177H8.15871V17.397H7.51387C5.03614 17.397 3 15.3609 3 12.8831C3 10.4054 5.03614 8.36927 7.51387 8.36927H14.0832L12.4308 6.71687C12.1952 6.47146 12.0277 6.12122 12.0277 5.78991Z" clip-rule="evenodd"/>
</svg>
